public/figma-home/vector7.svg

<svg preserveAspectRatio="none" width="100%" height="100%" overflow="visible" style="display: block;" viewBox="0 0 20 20" fill="none" xmlns="http://www.w3.org/2000/svg">
<path id="Vector" d="M10 0C15.523 0 20 4.477 20 10C20 15.523 15.523 20 10 20C8.23277 20.003 6.4966 19.5353 4.97002 18.645L0.00401546 20L1.35602 15.032C0.464974 13.5049 -0.00308163 11.768 1.52687e-05 10C1.52687e-05 4.477 4.47702 0 10 0ZM6.59202 5.3L6.39201 5.308C6.26271 5.31691 6.13636 5.35087 6.02002 5.408C5.91159 5.46951 5.81258 5.5463 5.72602 5.636C5.60602 5.749 5.53802 5.847 5.46502 5.942C5.09514 6.4229 4.89599 7.01331 4.89902 7.62C4.90102 8.11 5.02902 8.587 5.22902 9.033C5.63802 9.935 6.31102 10.89 7.19902 11.775C7.41302 11.988 7.62302 12.202 7.84902 12.401C8.95245 13.3724 10.2673 14.073 11.689 14.447L12.257 14.534C12.442 14.544 12.627 14.53 12.813 14.521C13.1042 14.5056 13.3885 14.4268 13.646 14.29C13.7769 14.2223 13.9047 14.1489 14.029 14.07C14.029 14.07 14.0713 14.0413 14.154 13.98C14.289 13.88 14.372 13.809 14.484 13.692C14.568 13.6053 14.638 13.5047 14.694 13.39C14.772 13.227 14.85 12.916 14.882 12.657C14.906 12.459 14.899 12.351 14.896 12.284C14.892 12.177 14.803 12.066 14.706 12.019L14.124 11.758C14.124 11.758 13.254 11.379 12.722 11.137C12.6663 11.1128 12.6067 11.0989 12.546 11.096C12.4776 11.0888 12.4084 11.0965 12.3432 11.1184C12.278 11.1403 12.2182 11.176 12.168 11.223C12.163 11.221 12.096 11.278 11.373 12.154C11.3315 12.2098 11.2744 12.2519 11.2088 12.2751C11.1433 12.2982 11.0723 12.3013 11.005 12.284C10.9398 12.2666 10.876 12.2446 10.814 12.218C10.69 12.166 10.647 12.146 10.562 12.11C9.98789 11.8599 9.45646 11.5215 8.98702 11.107C8.86102 10.997 8.74402 10.877 8.62402 10.761C8.23063 10.3842 7.88777 9.95799 7.60401 9.493L7.54501 9.398C7.50328 9.3338 7.46905 9.26501 7.44302 9.193C7.40502 9.046 7.50402 8.928 7.50402 8.928C7.50402 8.928 7.74702 8.662 7.86002 8.518C7.97002 8.378 8.06302 8.242 8.12302 8.145C8.24102 7.955 8.27802 7.76 8.21602 7.609C7.93602 6.925 7.64668 6.24467 7.34802 5.568C7.28902 5.434 7.11402 5.338 6.95502 5.319C6.90102 5.31233 6.84702 5.307 6.79302 5.303C6.65874 5.2953 6.52411 5.29663 6.39002 5.307L6.59202 5.3Z" fill="var(--fill-0, white)"/>
</svg>

<svg xmlns="http://www.w3.org/2000/svg" fill="none" overflow="visible" preserveAspectRatio="none" style="display:block" viewBox="0 0 20 20"><path fill="var(--fill-0, white)" d="M10 0c5.523 0 10 4.477 10 10s-4.477 10-10 10a9.95 9.95 0 0 1-5.03-1.355L.004 20l1.352-4.968A9.95 9.95 0 0 1 0 10C0 4.477 4.477 0 10 0M6.592 5.3l-.2.008a1 1 0 0 0-.372.1 1.3 1.3 0 0 0-.294.228c-.12.113-.188.211-.261.306a2.73 2.73 0 0 0-.566 1.678c.002.49.13.967.33 1.413.409.902 1.082 1.857 1.97 2.742.214.213.424.427.65.626a9.45 9.45 0 0 0 3.84 2.046l.568.087c.185.01.37-.004.556-.013a2 2 0 0 0 .833-.231q.196-.102.383-.22l.125-.09c.135-.1.218-.171.33-.288q.126-.13.21-.302c.078-.163.156-.474.188-.733.024-.198.017-.306.014-.373-.004-.107-.093-.218-.19-.265l-.582-.261s-.87-.379-1.402-.621a.5.5 0 0 0-.176-.041.48.48 0 0 0-.378.127c-.005-.002-.072.055-.795.931a.35.35 0 0 1-.368.13 1.4 1.4 0 0 1-.191-.066c-.124-.052-.167-.072-.252-.108a6 6 0 0 1-1.575-1.003c-.126-.11-.243-.23-.363-.346a6.3 6.3 0 0 1-1.02-1.268l-.059-.095a1 1 0 0 1-.102-.205c-.038-.147.061-.265.061-.265s.243-.266.356-.41c.11-.14.203-.276.263-.373.118-.19.155-.385.093-.536q-.42-1.026-.868-2.041c-.059-.134-.234-.23-.393-.249l-.162-.016a3 3 0 0 0-.403.004z"/></svg>
